X: 1
T: DOUGLAS' FAVORITE -- HORNPIPE
B: Ryan's Mammoth Collection of Fiddle Tunes
R: hornpipe
M: 2/4
L: 1/16
Z: Contributed 20000427144715 by John Chambers jchambers:casc.com
K: G
vG2vg>ud  "4"edBG | vG2vg>ud edBG | DGBG AGBG | DGBd cBAG |
G2g>d edBG | G2g>d edBG | gfgd ecAF | G2G2G2 :|
|: vB3uc .d2.d2 | cBcd "4".e2.e2 | A3B cBcA | Ggfa .g2.g2 |
dBdg eceg | fdfa gfge | dBdg ecAF | G2G2G2 :|
